X: 20614
T: John Patrick
R: jig
M: 6/8
K: Amajor
|:AAA cee|faa e3|faa eaa|cBB B2 e|
AAA cee|faa e3|fae fec|A3 A2 e:|
a3 a2e|faa fec|a3 a2e|fac B2e|
a3 a2e|faa fec|fae fec|A3 A2e|
a3 a2e|faa fec|a3 a2e|fac B2e|
AAA cee|faa e3|fae fec|A3 A2||

